X:1
T:La beltà, che port'al core
T:Virgilio Mazzocchi
T:Ariette di Musica a uno et due voci---Bracciano---A.Frei---1646. Editor : André Vierendeels (19/11/16).
T:Notes : Original clefs : C1, F4 Editorial accidentals above the staff Original note values have been halved Continuo slightly adapted Dotted brackets inicate black notes Figures in BC are notated in original print See also the "seconda parte: Qual remedio" (same composer)
T:La beltà, che port'al core
T:prima parte
T:©
T:©
C:Virgilio Mazzocchi
Z:©
%%score 1 { 2 | 3 }
L:1/8
Q:1/4=113
M:6/4
K:C
V:1 treble nm="Soprano" snm="S"
V:2 treble nm="MusicXML Part"
V:3 bass 
V:1
 z2 D2 E2 ^F4 d2 | B3 A G2 A4 A2 | z6 z2 F2 E2 | D4 D2 z6 | z2 d2 c2 B3 B A2 | G4 E2 ^F4 F2 | %6
w: La bel- tà, che|por- * t'al co- re|vi- vo'ar-|do- re,|che fa il fo- co'all'|al- m'ac- ce- sa|
 z6 z2 c2 B2 | A4 A2 z6 | z2 G3 c A4 G2 | F4 D2 E4 E2 | z8 _B2 A2 | G4 F2 z2 F2 E2 | %12
w: gra- ve'of-|fe- sa|io c'ha- vro s'a-|mar con- ten- to?|Rio tor-|men- to, rio tor-|
 D4 D2 z2 G3 F | E2 G4 G2 G2 ^F2 | G2 FE D2 z2 F3 G | A4 B2 c2 B2 c2 | A2 A2 c4 _B4 | %17
w: men- to che de-|sia vi- ver con- ten-|* * * to, fug- ga|pur d'A- mor l'Im- *|pe- ro s'al- trui|
 _B2 A2 B2 B2 A2 B2 | G2 G2 _B2 A2 A2 c2 | dc _BA GF E2 C2 F2 | _B4 F2 _A2 G4 | F4 A2 G2 E2 A2 | %22
w: por- ge'il nu- do'ar- cie- *|ro, ar- do- re of- *|fe- * * * * * * * sa|e cor tor- men|to, ar- do- re of-|
 _BA GF ED ^C2 A,2 G2- | G2 F4 F2 E4 | D12 |] %25
w: fe- * * * * * * sa e|_ tor- men- *|to.|
V:2
 z12 | z12 | z12 | z12 | z12 | z12 | z12 | z12 | z12 | z12 | z12 |"^6\n4""^5\n3" z12 | z12 | z12 | %14
 z12 |"^6\n4""^4\n3" z12 | z12 | z12 | z12 | z12 | z12 | z12 | z12 | z12 | z12 |] %25
V:3
"^BC""^#" z2 D,4 D,4 ^F,2 |"^#" G,4 G,2 D,4 D,2 |"^-natural""^4 3" D,2 E,2 F,2 G,2 A,4 | %3
 D,2 D2 C2 B,2 A,2 G,2 | ^F,4 F,2 G,4 A,2 |"^#" B,4 ^C2 D4 D2 | A,2 B,2 C2 D2 E4 | %7
"^-natural" A,4 A,2 A,2 G,2 F,2 |"^6" E,4 E,2 F,4 G,2 |"^6" A,4 G,2 C4 C2 | %10
"^4 3" G,2 A,2 _B,2 C2 D4 |"^-natural" G,4 G,2 A,4 A,2 | D,2 D3 C B,2 B,2 B,2 | %13
"^4 3" C2 C2 C2 D4 D2 | G,4 F,E, D,4 E,2 | F,2 C2 D2 E4 E2 | F4 C4 D4 | C4 D4 C4 | %18
"^6""^b" G,4 G,2 A,2 A,2 A,2 | _B,2 B,2 B,2 C4 A,2 |"^4         3" _B,4 C8 | F,4 F,2 E,2 E,2 F,2 | %22
 G,2 G,2 G,2 A,4 G,2- |"^4 3" G,2 D,2 A,4 A,4 | D,12 |] %25

